img/payments/Mastercard.svg

<svg width="83" height="89" viewBox="0 0 83 89" fill="none" xmlns="http://www.w3.org/2000/svg">
<path d="M2 55C2 25.7289 25.7289 2 55 2C84.2711 2 108 25.7289 108 55C108 84.2711 84.2711 108 55 108C25.7289 108 2 84.2711 2 55Z" fill="black"/>
<g clip-path="url(#clip0_1317_12639)">
<path d="M62.6119 38.3145H44.6836V71.4941H62.6119V38.3145Z" fill="#FF5A00"/>
<path d="M45.8766 54.9042C45.8766 48.1631 48.9531 42.1801 53.6738 38.3144C50.1996 35.5004 45.8169 33.7998 41.0365 33.7998C29.7119 33.7998 20.5488 43.2387 20.5488 54.9042C20.5488 66.5697 29.7119 76.0086 41.0365 76.0086C45.8169 76.0086 50.1996 74.3079 53.6738 71.494C48.9464 67.6829 45.8766 61.6453 45.8766 54.9042Z" fill="#EB001B"/>
<path d="M86.7988 54.9042C86.7988 66.5697 77.6357 76.0086 66.3112 76.0086C61.5307 76.0086 57.1481 74.3079 53.6738 71.494C58.4543 67.6215 61.4711 61.6453 61.4711 54.9042C61.4711 48.1631 58.3946 42.1801 53.6738 38.3144C57.1415 35.5004 61.5241 33.7998 66.3046 33.7998C77.6357 33.7998 86.7988 43.3002 86.7988 54.9042Z" fill="#F79E1B"/>
</g>
<path d="M55 106.775C26.4055 106.775 3.225 83.5945 3.225 55H0.775C0.775 84.9476 25.0524 109.225 55 109.225V106.775ZM106.775 55C106.775 83.5945 83.5945 106.775 55 106.775V109.225C84.9476 109.225 109.225 84.9476 109.225 55H106.775ZM55 3.225C83.5945 3.225 106.775 26.4055 106.775 55H109.225C109.225 25.0524 84.9476 0.775 55 0.775V3.225ZM55 0.775C25.0524 0.775 0.775 25.0524 0.775 55H3.225C3.225 26.4055 26.4055 3.225 55 3.225V0.775Z" fill="white"/>
<defs>
<clipPath id="clip0_1317_12639">
<rect width="66.25" height="42.4" fill="white" transform="translate(20.5488 33.7998)"/>
</clipPath>
</defs>
</svg>

<svg width="83" height="89" fill="none" xmlns="http://www.w3.org/2000/svg"><path d="M2 55C2 25.729 25.729 2 55 2s53 23.729 53 53-23.729 53-53 53S2 84.271 2 55z" fill="#000"/><g clip-path="url(#clip0_1317_12639)"><path d="M62.612 38.315H44.684v33.18h17.928v-33.18z" fill="#FF5A00"/><path d="M45.877 54.904c0-6.74 3.076-12.724 7.797-16.59C50.2 35.5 45.817 33.8 41.036 33.8c-11.324 0-20.487 9.439-20.487 21.104 0 11.666 9.163 21.105 20.487 21.105 4.78 0 9.164-1.701 12.638-4.515-4.728-3.811-7.797-9.849-7.797-16.59z" fill="#EB001B"/><path d="M86.799 54.904c0 11.666-9.163 21.105-20.488 21.105-4.78 0-9.163-1.701-12.637-4.515 4.78-3.873 7.797-9.849 7.797-16.59 0-6.74-3.076-12.724-7.797-16.59 3.468-2.814 7.85-4.514 12.63-4.514 11.332 0 20.495 9.5 20.495 21.104z" fill="#F79E1B"/></g><path d="M55 106.775c-28.595 0-51.775-23.18-51.775-51.775H.775c0 29.948 24.277 54.225 54.225 54.225v-2.45zM106.775 55c0 28.594-23.18 51.775-51.775 51.775v2.45c29.948 0 54.225-24.277 54.225-54.225h-2.45zM55 3.225c28.594 0 51.775 23.18 51.775 51.775h2.45C109.225 25.052 84.948.775 55 .775v2.45zm0-2.45C25.052.775.775 25.052.775 55h2.45C3.225 26.405 26.405 3.225 55 3.225V.775z" fill="#fff"/><defs><clipPath id="clip0_1317_12639"><path fill="#fff" transform="translate(20.549 33.8)" d="M0 0h66.25v42.4H0z"/></clipPath></defs></svg>
